symbols/web/format_textdirection_r_to_l/materialsymbolsoutlined/format_textdirection_r_to_l_wght500gradN25fill1_20px.svg

<svg xmlns="http://www.w3.org/2000/svg" height="20" width="20"><path d="m6.042 18.333-3.48-3.479 3.48-3.479 1.27 1.271L6 13.958h11.438v1.813H6l1.312 1.312Zm1.625-5.916V8.396q-1.375-.063-2.334-1.021-.958-.958-.958-2.333 0-1.396.99-2.375.989-.979 2.385-.979h6.771v1.791h-1.604v8.938h-1.792V3.479H9.458v8.938Z"/></svg>

<svg xmlns="http://www.w3.org/2000/svg" height="20" width="20"><path d="M6.042 18.333 2.562 14.854 6.042 11.375 7.312 12.646 6 13.958H17.438V15.771H6L7.312 17.083ZM7.667 12.417V8.396Q6.292 8.333 5.333 7.375Q4.375 6.417 4.375 5.042Q4.375 3.646 5.365 2.667Q6.354 1.688 7.75 1.688H14.521V3.479H12.917V12.417H11.125V3.479H9.458V12.417ZM7.667 6.604V3.479Q7.021 3.479 6.594 3.917Q6.167 4.354 6.167 5.021Q6.167 5.688 6.594 6.146Q7.021 6.604 7.667 6.604ZM7.667 6.604Q7.021 6.604 6.594 6.146Q6.167 5.688 6.167 5.021Q6.167 4.354 6.594 3.917Q7.021 3.479 7.667 3.479Z"/></svg>
